X:1
T:Title
%%score { ( 1 3 ) | ( 2 4 ) }
L:1/8
M:3/4
K:F
V:1 treble nm="Grand Piano"
V:3 treble 
V:2 bass 
V:4 bass 
V:1
 z2 z[Q:1/4=80] A A>G | F4[K:bass][K:treble] z2 | G4[K:bass][K:treble] z2 | %3
 A4[K:bass][K:treble] z2 |[M:3/8] F3[K:bass] | AA>G |[M:3/4] z[K:bass] C, A,[K:treble]f f>e | %7
 d4[K:bass][K:treble] z2 |[M:7/8] [FAc]2 [CFA]3 [A,CF]2 |[M:7/16] E/ z/ z/ z/ z/ z |] %10
V:2
 z2 z C C>B, | A,2 F,[K:treble]D D>C | B,2 G,B, E>D | C3 D[K:bass] B,>C |[M:3/8] A,2 F, | CC>B, | %6
[M:3/4] A,2 F,[K:treble][A,FA] [A,FA]>[CFc] | [FB]4[K:bass] z2 |[M:7/8] [C,A,C]2 C,3 C,2 | %9
[M:7/16] z/ DE<F,, |] %10
V:3
 x6 | z[K:bass] C, A,[K:treble]B B>A | z[K:bass] D, B,[K:treble]G c>B | %3
 z[K:bass] E, A,[K:treble]B G>A |[M:3/8] z[K:bass] C,A, | x3 |[M:3/4] F4[K:bass][K:treble] z2 | %7
 z[K:bass] F, D[K:treble][_A,DF_A] [A,DEA][A,DFA] |[M:7/8] x7 |[M:7/16] [B,G]-<[B,G][F,A,F]3/2 |] %10
V:4
 x6 | x3[K:treble] x3 | x6 | x4[K:bass] x2 |[M:3/8] x3 | x3 |[M:3/4] x3[K:treble] x3 | %7
 B,2 B,[K:bass]=B,, B,,B,, |[M:7/8] x7 |[M:7/16] C,-<C, z/ z |] %10

